X:1
T:Hallands spelmns gnglt
R:Gnglt
Z:Patrik Mnsson, 2008-10-05
O:Halland
M:2/4
L:1/8
K:G
D |: DB,1/2D1/2 GB | d2 BA | GG1/2B1/2 AG | GF F2 | DF AB | c2 f>e |
[1,3 dd Ac | B1/2c1/2B1/2A1/2 G>D :|[2,4 dd d1/2f1/2a1/2f/ | [gB]2 z [dD] :|]
|: dg1/2g1/2 gg | g2 B2 | BA A1/2B1/2c1/2d1/2 | e3 G | Fe1/2e1/2 [ec][ec]| [ec]2 FF1/2A1/2 |
GG1/2A1/2 B1/2A1/2B1/2c1/2 | d1/2e1/2d1/2c1/2 B1/2A1/2B1/2c1/2 | dg1/2g1/2 gg |g2 B2 | 
BA A1/2B1/2c1/2d1/2 | e3 G | Fe1/2e1/2 [ec][ec] | [ec]2 F2 | AB1/2A1/2 BA | [GB,]2 z2 :|
